static/assets/images/tokens/gho.svg

<svg width="256" height="256" viewBox="0 0 256 256" fill="none" xmlns="http://www.w3.org/2000/svg">
<path d="M128 256C198.692 256 256 198.692 256 128C256 57.3076 198.692 0 128 0C57.3076 0 0 57.3076 0 128C0 198.692 57.3076 256 128 256Z" fill="#28D358"/>
<path d="M80.896 111.275C80.896 114.015 81.4357 116.728 82.4842 119.259C83.5327 121.79 85.0695 124.09 87.0069 126.028C88.9443 127.965 91.2444 129.502 93.7757 130.55C96.307 131.599 99.0201 132.139 101.76 132.139C104.5 132.139 107.213 131.599 109.744 130.55C112.276 129.502 114.576 127.965 116.513 126.028C118.45 124.09 119.987 121.79 121.036 119.259C122.084 116.728 122.624 114.015 122.624 111.275C122.624 105.741 120.426 100.434 116.513 96.5216C112.6 92.6088 107.293 90.4107 101.76 90.4107C96.2265 90.4107 90.9197 92.6088 87.0069 96.5216C83.0942 100.434 80.896 105.741 80.896 111.275ZM133.461 111.275C133.461 114.009 134 116.716 135.046 119.243C136.093 121.769 137.626 124.064 139.56 125.998C141.493 127.931 143.789 129.465 146.315 130.511C148.841 131.557 151.548 132.096 154.283 132.096C157.017 132.096 159.724 131.557 162.251 130.511C164.777 129.465 167.072 127.931 169.006 125.998C170.939 124.064 172.473 121.769 173.519 119.243C174.565 116.716 175.104 114.009 175.104 111.275C175.104 105.753 172.91 100.457 169.006 96.5518C165.101 92.647 159.805 90.4533 154.283 90.4533C148.761 90.4533 143.465 92.647 139.56 96.5518C135.655 100.457 133.461 105.753 133.461 111.275Z" fill="white"/>
<path d="M226.731 209.408V138.411H199.936C194.56 174.251 164.949 200.363 128 200.363C87.1253 200.363 54.4427 168.448 54.4427 126.805C54.4427 85.1627 87.1253 52.736 128 52.736C163.669 52.736 193.024 77.3973 199.936 111.275H226.731C223.046 87.6846 211.091 66.1741 193.004 50.5881C174.916 35.0021 151.876 26.3568 128 26.1973C73.3867 26.1973 29.184 71.2533 29.184 126.891C29.184 182.528 73.5573 227.413 128 227.413C142.758 227.99 157.387 224.469 170.265 217.239C183.144 210.009 193.768 199.353 200.96 186.453L201.984 186.709V232.363C211.213 225.808 219.534 218.06 226.731 209.323V209.408Z" fill="white"/>
</svg>

<svg xmlns="http://www.w3.org/2000/svg" fill="none" viewBox="0 0 256 256"><path fill="#28D358" d="M128 256c70.692 0 128-57.308 128-128S198.692 0 128 0 0 57.308 0 128s57.308 128 128 128"/><path fill="#fff" d="M80.896 111.275a20.86 20.86 0 0 0 12.88 19.275 20.86 20.86 0 0 0 22.737-4.522 20.87 20.87 0 0 0 0-29.506 20.865 20.865 0 0 0-35.617 14.753m52.565 0a20.83 20.83 0 0 0 6.099 14.723 20.82 20.82 0 0 0 22.691 4.513 20.83 20.83 0 0 0 11.268-11.268 20.83 20.83 0 0 0-4.513-22.691 20.822 20.822 0 0 0-35.545 14.723"/><path fill="#fff" d="M226.731 209.408v-70.997h-26.795c-5.376 35.84-34.987 61.952-71.936 61.952-40.875 0-73.557-31.915-73.557-73.558 0-41.642 32.682-74.069 73.557-74.069 35.669 0 65.024 24.661 71.936 58.539h26.795A100.61 100.61 0 0 0 128 26.197c-54.613 0-98.816 45.056-98.816 100.694 0 55.637 44.373 100.522 98.816 100.522a79.95 79.95 0 0 0 72.96-40.96l1.024.256v45.654a128.4 128.4 0 0 0 24.747-23.04z"/></svg>
